src/img/aimlapi.svg

<svg width="24" height="21" viewBox="0 0 24 21" fill="none" xmlns="http://www.w3.org/2000/svg">
  <path d="M22.8059 9.20726C23.2424 9.96331 23.2424 10.8948 22.8059 11.6508L18.2791 19.4915C17.8426 20.2475 17.0359 20.7133 16.1629 20.7133H7.10934C6.23633 20.7133 5.42964 20.2475 4.99313 19.4915L0.466342 11.6508C0.0298381 10.8948 0.02984 9.96331 0.466344 9.20726L4.99313 1.36663C5.42964 0.61058 6.23633 0.144836 7.10934 0.144836H16.1629C17.0359 0.144836 17.8426 0.610581 18.2791 1.36663L22.8059 9.20726Z" />
  <path fill-rule="evenodd" clip-rule="evenodd" d="M6.66791 13.8818C6.49765 13.8818 6.32633 13.8275 6.18162 13.7168C5.83259 13.4476 5.76662 12.9464 6.03583 12.5974L9.22068 8.45807C9.3505 8.28888 9.5431 8.17928 9.75379 8.15268C9.96874 8.12501 10.1794 8.1846 10.3465 8.31761L13.3472 10.6746L15.9724 7.28756C16.2427 6.93748 16.7428 6.87257 17.0918 7.14498C17.4408 7.41526 17.5047 7.91645 17.2344 8.26441L14.1166 12.2867C13.9868 12.4548 13.7952 12.5644 13.5845 12.59C13.3717 12.6187 13.161 12.557 12.9929 12.4261L9.99428 10.0702L7.30105 13.57C7.14356 13.7743 6.90733 13.8818 6.66791 13.8818Z" fill="black"/>
</svg>

<svg width="24" height="21" fill="none" xmlns="http://www.w3.org/2000/svg"><path d="M22.8 9.2c.4.8.4 1.7 0 2.5l-4.5 7.8c-.5.7-1.3 1.2-2.1 1.2h-9c-1 0-1.8-.5-2.2-1.2L.5 11.7C0 10.9 0 10 .5 9.2L5 1.4C5.4.6 6.2 0 7 0h9c1 0 1.7.5 2.2 1.3l4.5 7.8Z"/><path fill-rule="evenodd" clip-rule="evenodd" d="M6.7 13.9a.8.8 0 0 1-.7-1.3l3.2-4.1a.8.8 0 0 1 1.1-.2l3 2.4L16 7.3c.2-.4.7-.4 1-.2.4.3.5.8.2 1.2l-3 4a.8.8 0 0 1-1.2.1l-3-2.3-2.7 3.5-.6.3Z" fill="#000"/></svg>
